!!!OTL: Der Kuckuck war ein reicher Mann (Band 1), S. 241
!!!id: P0862
**kern
*clefG2
*k[b-]
*F:
{8c
=1
4f
8f
8f
8g
8a
=2
4a
8g
4g
8cc
=3
[2a
8a]}
=4
{8a
=5
4cc
8cc
4cc
8dd
=6
4b-
8b-
4b-}
=7
{8b-
=8
4a
8a
8cc
8b-
8a
=9
4a
8g
4g}
=10
{8cc
=11
4a
8a
8g
8f
8g
=12
4.f}
=13
{4.g
=14
4a
8a
8g
8a
8g
=15
[2f
8f]}
==
*-
!!!minrhy: 8
!!!meters: 6/8 ]  ZZ[5
!!!cut: Der Kuckuck war ein reicher Mann (Band 1), S. 241
!!!reg: Lothringen
!!!trd: PINCK, Louis: Verklingende Weisen, Bd 1, Metz 1928
!!!rhy1: X  X_XXXX  X_XX_X  X__^
!!!rhy2: X  X_XX_X  X_XX_
!!!key: P0862  08  F 6/8 ]  ZZ[5
!!!mod: SECHSTONSKALA DUR ?]  AMBITUS[9
!!!kad: 34211
!!!akz: 113233_5544_3532_321_23211_
!!!fot: 'a__b__c__d__e__
!!!for: 'a__b__aw_aw_aw_
!!!fok: '^a_^a_\__\__\__
!! PHRAS[AUFTAKTIG]
!!!fkt: Spottlied
!!!bem: Melodievariante zu "Et wor a Meedchen zu Götzen
!! LOTH VKL
!! PR[24] 2K[7] 2G[23] 3K[2] 3G[5] 4A[3] 4Ü[0] 5A[0] 6K[0] 6G[0]
!! 7K[0] 7G[0] 8A[0] MEHR[0] SI[40] ABS[88] SR[30] SP[10]
!! ST[40] 2k[7] 2g[23] 3k[2] 3g[2] 4d[0] 4ü[0] 5d[0] 6k[0] 6g[2]
!! 7k[0] 7g[0] 8d[0] mehr[0] si[36] dm[+4] sr[30] sp[7]
!! 1F[4] 2F[66] 3F[27] 4F[0] LF[0] 2P[2] 3P[0] 4P[0] TRI[0] DF[4] AB[95]
!! TF[0] U3K[0] U3[0] U4[0] U4Ü[0] U5[8] U6K[0] U6[0] U7K[0] U7[3]
!! N1[33] N2K[0] N2[25] N3K[0] N3[21] N4[6] N4Ü[0] N5[4] N6K[0] N6[0]
!!!n7k: 0] N7[0] O1[0] O2K[0] O2[0] O3K[0] O3[0] HÖ[0
